X:1
T:piano version Schindler's List Theme
T:piano version Schindler's List Theme
%%score { ( 1 3 ) | ( 2 4 5 ) }
L:1/8
Q:1/4=80
M:4/4
K:F
V:1 treble nm="Piano" snm="Pno."
V:3 treble 
V:2 bass 
V:4 bass 
V:5 bass 
V:1
!mf! (ed | f2 e2) (c=B d2- | dc)=Bd c2 A^G | [DEA]6 A2- | Afe=B !arpeggio![^ca]4 | %5
!p! [DFA]4 [DFAB]2 [DFA]2 | [B,DF]4 A4 | [DFA]4 !arpeggio![B,DF]4 | [B,CE]4 ([B,G] [A,F]3) | %9
 ([B,E] [G,D]2 G,) !arpeggio![A,EA]4 | [A,FA]4 A4 | [dg]4 [G,E]4 | z [A,F][G,E][F,D] DG,^CA, | %13
 [DF]4 [A,EA]4 | z"_cresc." (E[FA]A,) ([Ec][DB][CA][B,G]) | %15
!mp! z/ A,/[FA]/A,/- A,/B,/A,- A,/A,/[FA]/A,/- A,/B,/A, | %16
 z/ B,/[DF]/G,/- G,/G,/[B,DF] z/ C/c/C/ E/F/e/A/- | A/A/[efa]/A/- A/A/d z [Ff]3 | %18
 z/ B/[DF]/B,/- B,/G/[CE]/G,/ z/ C3/2- C/C/c/C/ | G [G,B,D]2 [G,B,D] AA,[^CF]E | %20
 A/A,/F/A,/ E/A,/F/A,/ A/A,/F/A,/ ^G,A, | [=G,B,D=G]4 (A/^C/A,/E/) (^c/F/C/E/) | %22
 d/F/E/=c/ B/D/C/A/ G/B,/A,/F/ E/A,/G,/^C/ | [F,A,B,D]2 [Bdf]2 [A,^CE]2 [A^ca]2 | %24
 (A,/F,/D/F/ A/d/f/a/ d'4) |!mf! z!>(! (A/G/ BA) (E>F G2-!>)! | G)(F/G/ ED/^C/) (E D3) | %27
 z (A/G/ cB) (E>F G2- | G)(G,/A,/ B,)(B,/C/ D)(=E/F/ ^G2) | %29
!p! (c'/=b/c'/e/ c'/b/c'/e/) (d'/c'/d'/f/ b/a/b/d/) | (c/=B/f/F/ d/e/F/E/) (d/c/e/E/ f/d/e/E/) | %31
 (D/C/c) (G/E/F) (F>E D/C/=B,/A,/) | [A,FA]4 [Afa]2!<(! !arpeggio![^D^F=B^d]2!<)! | %33
!p! [eac']4 [Ece]4 | !arpeggio![C-Ac-]4 [CAc]4 | [A,=B,]8 | (A2 =B2) [Ad]2 [^GBe]2 | %37
 ([ce]4 [E-ce]4) | [Ecea]6 z2 |] %39
V:2
 E,2- | [E,C]2- [E,CE]2 D,2- [D,B,]2- | [D,B,F]2 [F,,D,A,]2 A,2 F,E, | A,,,E,,A,,D, E,DC=B, | %4
 A,2 [B,F]2 !arpeggio![A,E]4 |!ped! z8!ped-up! | z8 | z2 D,2 G,,D,E,F,- | F, z C,2 F,,-C,-E,F, | %9
 (E,, D,2 D,) (C,,A,,F,G,) | D,,A,,F,A, (E2 D2) | B,2- B,/(E,/D,/B,,/ (A,,2) A,,,2) | %12
 B,,,F,,D,F,, A,,,A,,G,E, | (F,2 [D,F,]2) A,,2 A,,,2 | (D,,A,,F,A,,) (D,,B,,G,B,,) | %15
 (D,,A,,F,A,,) (D,,A,,F,A,,) | G,,F,C,,D, F,,C,A,E,, | D,,[A,EF]DD,, G,,, [B,D]3 | %18
 (G,,F,C,,E,) (F,,C,A,C,) | E,, D,2 D, A,,,A,,G,A,, | (D,,A,,F,A,,) (D,,A,,F,A,,) | %21
 (E,,B,,D,F,) (A,,,A,,)(G,A,,) | (B,,,F,,D,F,) (A,,,A,,)(G,A,,) | %23
 [G,,,G,,]2 [B,DF]2 [A,,,A,,]2 [A,^C]2 |!ped! D,,,8!ped-up! | (A, [DF]2 [DF]) (B, D2 [DE]) | %26
 (B,D)(A,,G,) (D,,A,,F,D,) | (A, [DF]2 [DF]) (B, [DE]2 [DE]) | %28
 (D,/A,,/G,,) (G,/_E,/D,) (B,/D,/G,,) [B,DE]2 |!ped! (A,,E,CE,) (A,,F,DF,)!ped-up! | %30
 (A,,F,DF,) (A,,E,CE,) | (A,,E,) (D,,/A,,/F,/A,/) (=B,D,A,F,) | E, =B,,2 B,, A,B,,-B,,=B,,, | %33
 [EAc]4[K:bass] [A,C]4 | !arpeggio![F,,A,,F,]4- [F,,A,,F,]4 | F,8 | (A,2 ^G,2 [F,A,]2 [E,G,]2) | %37
 (A,,E,A,C [E,A,CE]4- | [E,A,CE]6) z2 |] %39
V:3
 x2 | x8 | x2 [DA]2 [CE]2 [D=B]2 | x8 | x8 | x8 | (B,3 G,) (([CF]2 [^CE]2)) | x8 | x8 | %9
 x4 (D2 ^C2) | (E2 D2) (!tenuto!e2 f2) | G4 ([B,D]2 [A,^C]2) | x4 [EG]2 E2 | B,4 (D2 ^C2) | x8 | %15
 x8 | x8 | x5 dcB | x8 | G4 A4 | GFEF GF x2 | x8 | d>c B>A G>F E>^C | x8 | x8 | x8 | x8 | x8 | x8 | %29
 x8 | x8 | x4 [A=B]4 | x8 | x8 | G2 F2- F4 | z4 [FA=B]4 | F4 (F2 E2) | E4- x Ac-e- | x8 |] %39
V:4
 x2 | x8 | x4 =B,,C, x2 | A,,,4 E,4 | A,4 x4 | x8 | x8 | x4 G,,4 | x6 [F,,C,]2 | E,,4 C,, A,,3 | %10
 D,,4 F4 | [FG]4 A,,4 | B,,,4 A,,,4 | G,,4 A,,4 | D,,4 D,,4 | D,,4 D,,4 | G,,2 C,,2 F,,3 E,, | %17
 D,,3 D,, G,,,4 | x8 | E,,4 A,,,4 | D,,4 D,,4 | E,,4 A,,,4 | B,,,4 A,,,4 | x8 | %24
 z2 [F,A,D]2 [DFA]2 D,2 | A,4 B,4 | B,2 A,,2 D,,4 | A,4 B,4 | x8 | A,,4 A,,4 | A,,4 A,,4 | %31
 A,,2 D,,2 x4 | F,4 [DF]2 !arpeggio![^F,=B,]2 | x4[K:bass] x4 | x8 | x8 | D4 D4 | %37
 [A,,,A,,]4- [A,,,A,,]4- | [A,,,A,,]6 x2 |] %39
V:5
 x2 | x8 | x8 | x8 | x8 | x8 | x8 | x8 | x8 | x8 | x8 | x8 | x8 | x8 | x8 | x8 | x8 | x5 B,A,G, | %18
 x8 | x8 | x8 | x8 | x8 | x8 | x8 | x8 | x8 | x8 | x8 | x8 | x8 | x8 | x8 | x4[K:bass] x4 | x8 | %35
 x8 | x8 | x8 | x8 |] %39

